public/img/professional-team.svg

<svg width="52" height="40" viewBox="0 0 52 40" fill="none" xmlns="http://www.w3.org/2000/svg">
<path d="M26.3125 0.15625L50.6875 16.4062C51 16.5625 51.0781 16.9531 50.8438 17.2656C50.6875 17.5781 50.2969 17.6562 49.9844 17.4219L26 1.40625L1.9375 17.4219C1.625 17.6562 1.23438 17.5781 1.07812 17.2656C0.84375 16.9531 0.921875 16.5625 1.23438 16.4062L25.6094 0.15625C25.8438 0 26.0781 0 26.3125 0.15625ZM39.75 21.25C38.6562 21.25 37.875 22.1094 37.875 23.125C37.875 24.2188 38.6562 25 39.75 25C40.7656 25 41.625 24.2188 41.625 23.125C41.625 22.1094 40.7656 21.25 39.75 21.25ZM39.75 26.25C38.5781 26.25 37.5625 25.7031 37.0156 24.6875C36.4688 23.75 36.4688 22.5781 37.0156 21.5625C37.5625 20.625 38.5781 20 39.75 20C40.8438 20 41.8594 20.625 42.4062 21.5625C42.9531 22.5781 42.9531 23.75 42.4062 24.6875C41.8594 25.7031 40.8438 26.25 39.75 26.25ZM39.2812 28.75C36.7812 28.75 34.4375 30.1562 33.1875 32.4219L31 36.5625C30.8438 36.9531 31 37.4219 31.3906 37.6562C31.7812 37.8125 32.25 37.6562 32.4062 37.3438L35.5312 32.1875C35.6875 31.9531 35.9219 31.875 36.2344 31.9531C36.4688 32.0312 36.7031 32.2656 36.7031 32.5V37.5781C36.7031 38.2031 37.25 38.8281 37.9531 38.8281H41.7031C42.3281 38.8281 42.9531 38.2031 42.9531 37.5781V32.5781C42.9531 32.2656 43.1094 32.0312 43.4219 31.9531C43.6562 31.875 43.9688 31.9531 44.125 32.1875L47.1719 37.3438C47.4062 37.6562 47.875 37.8125 48.1875 37.6562C48.6562 37.4219 48.8125 36.9531 48.5781 36.5625L46.3906 32.4219C45.2188 30.1562 42.875 28.75 40.2969 28.75H39.2812ZM32.1719 31.875C33.5781 29.2188 36.3125 27.5 39.2812 27.5H40.2969C43.3438 27.5 46.0781 29.2188 47.4844 31.875L49.6719 35.9375C50.2188 36.9531 49.8281 38.2031 48.8125 38.75C47.7969 39.2188 46.625 38.9062 46.0781 37.9688L44.2031 34.7656V37.5C44.2031 38.9062 43.1094 40 41.7031 40H37.9531C36.5469 40 35.4531 38.9062 35.4531 37.5V34.7656L33.5 37.9688C32.9531 38.9062 31.7812 39.2188 30.8438 38.75C29.8281 38.2031 29.4375 36.9531 29.9844 35.9375L32.1719 31.875ZM10.375 23.125C10.375 24.2188 11.1562 25 12.25 25C13.2656 25 14.125 24.2188 14.125 23.125C14.125 22.1094 13.2656 21.25 12.25 21.25C11.1562 21.25 10.375 22.1094 10.375 23.125ZM15.375 23.125C15.375 24.2969 14.75 25.3125 13.8125 25.8594C12.7969 26.4062 11.625 26.4062 10.6875 25.8594C9.67188 25.3125 9.125 24.2969 9.125 23.125C9.125 22.0312 9.67188 21.0156 10.6875 20.4688C11.625 19.9219 12.7969 19.9219 13.8125 20.4688C14.75 21.0156 15.375 22.0312 15.375 23.125ZM5.76562 32.4219L3.57812 36.5625C3.34375 36.9531 3.5 37.4219 3.89062 37.6562C4.28125 37.8125 4.75 37.6562 4.98438 37.3438L8.03125 32.1875C8.1875 31.9531 8.42188 31.875 8.73438 31.9531C8.96875 32.0312 9.20312 32.2656 9.20312 32.5V37.5781C9.20312 38.2031 9.75 38.8281 10.4531 38.8281H14.2031C14.8281 38.8281 15.4531 38.2031 15.4531 37.5781V32.5781C15.4531 32.2656 15.6094 32.0312 15.9219 31.9531C16.1562 31.875 16.4688 31.9531 16.625 32.1875L19.6719 37.3438C19.9062 37.6562 20.375 37.8125 20.6875 37.6562C21.1562 37.4219 21.3125 36.9531 21.0781 36.5625L18.8906 32.4219C17.7188 30.1562 15.375 28.75 12.7969 28.75H11.7812C9.28125 28.75 6.9375 30.1562 5.76562 32.4219ZM11.7812 27.5H12.7969C15.8438 27.5 18.5781 29.2188 19.9844 31.875L22.1719 35.9375C22.7188 36.9531 22.3281 38.2031 21.3125 38.75C20.2969 39.2188 19.125 38.9062 18.5781 37.9688L16.7031 34.7656V37.5C16.7031 38.9062 15.6094 40 14.2031 40H10.4531C9.04688 40 7.95312 38.9062 7.95312 37.5V34.7656L6 37.9688C5.45312 38.9062 4.28125 39.2188 3.34375 38.75C2.32812 38.2031 1.9375 36.9531 2.48438 35.9375L4.67188 31.875C6.07812 29.2188 8.8125 27.5 11.7812 27.5ZM26 12.5C24.9062 12.5 24.125 13.3594 24.125 14.375C24.125 15.4688 24.9062 16.25 26 16.25C27.0156 16.25 27.875 15.4688 27.875 14.375C27.875 13.3594 27.0156 12.5 26 12.5ZM26 17.5C24.8281 17.5 23.8125 16.9531 23.2656 15.9375C22.7188 15 22.7188 13.8281 23.2656 12.8125C23.8125 11.875 24.8281 11.25 26 11.25C27.0938 11.25 28.1094 11.875 28.6562 12.8125C29.2031 13.8281 29.2031 15 28.6562 15.9375C28.1094 16.9531 27.0938 17.5 26 17.5ZM25.5312 20C23.0312 20 20.6875 21.4062 19.5156 23.6719L17.9531 26.5625C17.7969 26.875 17.4062 26.9531 17.0938 26.7969C16.7812 26.6406 16.7031 26.25 16.8594 25.9375L18.4219 23.125C19.8281 20.4688 22.5625 18.8281 25.5312 18.8281H26.5469C29.5938 18.8281 32.3281 20.4688 33.7344 23.125L35.2969 25.9375C35.4531 26.25 35.375 26.6406 35.0625 26.7969C34.75 26.9531 34.3594 26.875 34.2031 26.5625L32.6406 23.6719C31.4688 21.4062 29.125 20 26.5469 20H25.5312ZM22.4844 23.2031C22.7188 23.2812 22.9531 23.5156 22.9531 23.75V30.625C22.9531 31.0156 22.6406 31.25 22.3281 31.25C21.9375 31.25 21.7031 31.0156 21.7031 30.625V25.9375L20.375 27.9688C20.2188 28.2812 19.8281 28.3594 19.5156 28.2031C19.2812 27.9688 19.125 27.5781 19.3594 27.3438L21.7812 23.4375C21.9375 23.2031 22.25 23.125 22.4844 23.2031ZM29.6719 23.2031H29.5938C29.9062 23.125 30.2188 23.2031 30.2969 23.4375L32.7969 27.3438C32.9531 27.5781 32.875 27.9688 32.5625 28.2031C32.3281 28.3594 31.9375 28.2812 31.7031 27.9688L30.4531 25.9375V30.625C30.4531 31.0156 30.1406 31.25 29.8281 31.25C29.4375 31.25 29.2031 31.0156 29.2031 30.625V23.75C29.2031 23.5156 29.3594 23.2812 29.6719 23.2031Z" fill="#1A75BB"/>
</svg>

<svg xmlns="http://www.w3.org/2000/svg" width="52" height="40" fill="none"><path fill="#1A75BB" d="m26.313.156 24.375 16.25c.312.157.39.547.156.86-.157.312-.547.39-.86.156L26 1.406 1.938 17.422c-.313.234-.704.156-.86-.156-.234-.313-.156-.703.156-.86L25.61.156a.59.59 0 0 1 .703 0M39.75 21.25c-1.094 0-1.875.86-1.875 1.875 0 1.094.781 1.875 1.875 1.875 1.016 0 1.875-.781 1.875-1.875 0-1.016-.86-1.875-1.875-1.875m0 5c-1.172 0-2.187-.547-2.734-1.562-.547-.938-.547-2.11 0-3.125A3.15 3.15 0 0 1 39.75 20c1.094 0 2.11.625 2.656 1.563.547 1.015.547 2.187 0 3.125-.547 1.015-1.562 1.562-2.656 1.562m-.469 2.5c-2.5 0-4.843 1.406-6.093 3.672L31 36.562c-.156.391 0 .86.39 1.094.391.157.86 0 1.016-.312l3.125-5.157q.234-.351.703-.234c.235.078.47.313.47.547v5.078c0 .625.546 1.25 1.25 1.25h3.75c.624 0 1.25-.625 1.25-1.25v-5c0-.312.155-.547.468-.625a.63.63 0 0 1 .703.235l3.047 5.156c.234.312.703.468 1.016.312.468-.234.624-.703.39-1.093l-2.187-4.141c-1.172-2.266-3.516-3.672-6.094-3.672zm-7.11 3.125c1.407-2.656 4.142-4.375 7.11-4.375h1.016c3.047 0 5.781 1.719 7.187 4.375l2.188 4.063a2.073 2.073 0 0 1-.86 2.812c-1.015.469-2.187.156-2.734-.781l-1.875-3.203V37.5c0 1.406-1.094 2.5-2.5 2.5h-3.75a2.47 2.47 0 0 1-2.5-2.5v-2.734L33.5 37.969a2.025 2.025 0 0 1-2.656.781 2.073 2.073 0 0 1-.86-2.812zm-21.796-8.75c0 1.094.781 1.875 1.875 1.875 1.016 0 1.875-.781 1.875-1.875 0-1.016-.86-1.875-1.875-1.875-1.094 0-1.875.86-1.875 1.875m5 0a3.15 3.15 0 0 1-1.562 2.734c-1.016.547-2.188.547-3.126 0-1.015-.547-1.562-1.562-1.562-2.734 0-1.094.547-2.11 1.563-2.656.937-.547 2.109-.547 3.124 0 .938.547 1.563 1.562 1.563 2.656m-9.61 9.297-2.187 4.14c-.234.391-.078.86.313 1.094.39.157.859 0 1.093-.312l3.047-5.157q.234-.351.703-.234c.235.078.47.313.47.547v5.078c0 .625.546 1.25 1.25 1.25h3.75c.624 0 1.25-.625 1.25-1.25v-5c0-.312.155-.547.468-.625a.63.63 0 0 1 .703.235l3.047 5.156c.234.312.703.468 1.015.312.47-.234.625-.703.391-1.093l-2.187-4.141c-1.172-2.266-3.516-3.672-6.094-3.672H11.78a6.8 6.8 0 0 0-6.015 3.672m6.016-4.922h1.016c3.047 0 5.781 1.719 7.187 4.375l2.188 4.063a2.073 2.073 0 0 1-.86 2.812c-1.015.469-2.187.156-2.734-.781l-1.875-3.203V37.5c0 1.406-1.094 2.5-2.5 2.5h-3.75a2.47 2.47 0 0 1-2.5-2.5v-2.734L6 37.969a2.025 2.025 0 0 1-2.656.781 2.073 2.073 0 0 1-.86-2.812l2.188-4.063c1.406-2.656 4.14-4.375 7.11-4.375M26 12.5c-1.094 0-1.875.86-1.875 1.875 0 1.094.781 1.875 1.875 1.875 1.016 0 1.875-.781 1.875-1.875 0-1.016-.86-1.875-1.875-1.875m0 5c-1.172 0-2.187-.547-2.734-1.562-.547-.938-.547-2.11 0-3.126A3.15 3.15 0 0 1 26 11.25c1.094 0 2.11.625 2.656 1.563.547 1.015.547 2.187 0 3.124C28.11 16.954 27.094 17.5 26 17.5m-.469 2.5a6.8 6.8 0 0 0-6.015 3.672l-1.563 2.89c-.156.313-.547.391-.86.235s-.39-.547-.234-.86l1.563-2.812a8.04 8.04 0 0 1 7.11-4.297h1.015c3.047 0 5.781 1.64 7.187 4.297l1.563 2.813c.156.312.078.703-.234.859-.313.156-.704.078-.86-.235l-1.562-2.89C31.469 21.406 29.125 20 26.547 20zm-3.047 3.203c.235.078.47.313.47.547v6.875c0 .39-.313.625-.626.625-.39 0-.625-.234-.625-.625v-4.687l-1.328 2.03c-.156.313-.547.391-.86.235-.234-.234-.39-.625-.156-.86l2.422-3.905a.63.63 0 0 1 .703-.235m7.188 0h-.078c.312-.078.625 0 .703.235l2.5 3.906c.156.234.078.625-.234.86-.235.155-.626.077-.86-.235l-1.25-2.032v4.688c0 .39-.312.625-.625.625-.39 0-.625-.234-.625-.625V23.75c0-.234.156-.469.469-.547"/></svg>
